X:16
T:Devil's Dream
Z:robin.beech@mcgill.ca
R:reel
M:4/4
L:1/8
K:A
e2 |: agae agae | agae fedc | dfBf dfBf | dfBf gabg |agae agae |
agae fedc | defg afed |1 cABc A2e2 :|2 cABc A2A2 |: ceAe ceAe | ceAe fedc |
dfBf dfBf | dfBf agfe | ceAe ceAe | ceAe fedc | defg afed |1
cABc A2A2 :|2 cABc A2e2 |: agae agae | agae fedc | dfBf dfBf | dfBf gabg |
agae agae | agae fedc | defg afed |1 cABc A2e2 :|2 cABc A2A2 |]
